/* XPM */
static char *xA[] = {
/* columns rows colors chars-per-pixel */
"16 48 9 1",
"  c black",
". c gray12",
"X c gray40",
"o c #8E8E8E",
"O c gray68",
"+ c #B7B7B7",
"@ c gray84",
"# c gray88",
"$ c gray100",
/* pixels */
"$$$$$$$$$$$$$$$$",
"################",
"@@@@@@@@@@@@@@@@",
"++++++++++++++++",
"      ######    ",
"      #####     ",
"     #####      ",
"     ####       ",
"     ######     ",
"    ######      ",
"      ###       ",
"      ##        ",
"     ##         ",
"     #          ",
"                ",
"                ",
"                ",
"++++++++++++++++",
"++++++++++++++++",
"OOOOOOOOOOOOOOOO",
"oooooooooooooooo",
"++++++++++++++++",
"XXXXXXXXXXXXXXXX",
"                ",
"$$$$$$$$$$$$$$$$",
"################",
"@@@@@@@@@@@@@@@@",
"++++++++++++++++",
"$$$$$$......$$$$",
"$$$$$$.....$$$$$",
"$$$$$.....$$$$$$",
"$$$$$....$$$$$$$",
"$$$$$......$$$$$",
"$$$$......$$$$$$",
"$$$$$$...$$$$$$$",
"$$$$$$..$$$$$$$$",
"$$$$$..$$$$$$$$$",
"$$$$$.$$$$$$$$$$",
"$$$$$$$$$$$$$$$$",
"$$$$$$$$$$$$$$$$",
"$$$$$$$$$$$$$$$$",
"++++++++++++++++",
"++++++++++++++++",
"OOOOOOOOOOOOOOOO",
"oooooooooooooooo",
"++++++++++++++++",
"XXXXXXXXXXXXXXXX",
"                "
};
