/* XPM */
static char *frameIBL[] = {
/* columns rows colors chars-per-pixel */
"20 20 8 1",
"  c black",
". c gray40",
"X c #8E8E8E",
"o c gray68",
"O c #B7B7B7",
"+ c gray84",
"@ c #EAEAEA",
"# c None",
/* pixels */
" @+OOOO ############",
" @+OOOO ############",
" @+OOOO ############",
" @+OOOO ############",
" @+OOOO ############",
" @+OOOO ############",
" @+OOOO ############",
" @+OOOO ############",
" @+OOOO ############",
" @+OOOO ############",
" @+OOOO ############",
" @+OOOO ############",
" @+OOOO             ",
" @+OOOOOOOOOOOOOOOOO",
" @+OOOOOOOOOOOOOOOOO",
" @+OOOOOOOOOOOOOOOOO",
" @+ooooooooooooooooo",
" @OXXXXXXXXXXXXXXXXX",
" O..................",
"                    "
};
