/* XPM */
static char *frameATR[] = {
/* columns rows colors chars-per-pixel */
"20 20 8 1",
"  c black",
". c gray40",
"X c #B7B7B7",
"o c gray84",
"O c gray88",
"+ c #EAEAEA",
"@ c gray100",
"# c None",
/* pixels */
"                    ",
"@@@@@@@@@@@@@@@@@@@ ",
"OOOOOOOOOOOOOOOOOO+ ",
".................o+ ",
".................o+ ",
"XXXXXXXXXXXXXXX..o+ ",
"XXXXXXXXXXXXXXX..o+ ",
"             XX..o+ ",
"############ XX..o+ ",
"############ XX..o+ ",
"############ XX..o+ ",
"############ XX..o+ ",
"############ XX..o+ ",
"############ XX..o+ ",
"############ XX..o+ ",
"############ XX..o+ ",
"############ XX..o+ ",
"############ XX..o+ ",
"############ XX..o+ ",
"############ XX..o+ "
};
