/* XPM */
static char *frameABL[] = {
/* columns rows colors chars-per-pixel */
"20 20 9 1",
"  c black",
". c gray40",
"X c gray44",
"o c #8E8E8E",
"O c gray68",
"+ c #B7B7B7",
"@ c gray84",
"# c #EAEAEA",
"$ c None",
/* pixels */
" #@..++ $$$$$$$$$$$$",
" #@..++ $$$$$$$$$$$$",
" #@..++ $$$$$$$$$$$$",
" #@..++ $$$$$$$$$$$$",
" #@..++ $$$$$$$$$$$$",
" #@..++ $$$$$$$$$$$$",
" #@..++ $$$$$$$$$$$$",
" #@..++ $$$$$$$$$$$$",
" #@..++ $$$$$$$$$$$$",
" #@..++ $$$$$$$$$$$$",
" #@..++ $$$$$$$$$$$$",
" #@..++ $$$$$$$$$$$$",
" #@..++             ",
" #@..+++++++++++++++",
" #@..XXXXXXXXXXXXXXX",
" #@.                ",
" #@OOOOOOOOOOOOOOOOO",
" #+ooooooooooooooooo",
" +..................",
"                    "
};
