/* XPM */
static char *frameITL[] = {
/* columns rows colors chars-per-pixel */
"20 20 7 1",
"  c black",
". c #B7B7B7",
"X c gray84",
"o c gray88",
"O c #EAEAEA",
"+ c gray100",
"@ c None",
/* pixels */
"                    ",
" +++++++++++++++++++",
" Ooooooooooooooooooo",
" OXXXXXXXXXXXXXXXXXX",
" OX.................",
" OX.................",
" OX.................",
" OX....             ",
" OX.... @@@@@@@@@@@@",
" OX.... @@@@@@@@@@@@",
" OX.... @@@@@@@@@@@@",
" OX.... @@@@@@@@@@@@",
" OX.... @@@@@@@@@@@@",
" OX.... @@@@@@@@@@@@",
" OX.... @@@@@@@@@@@@",
" OX.... @@@@@@@@@@@@",
" OX.... @@@@@@@@@@@@",
" OX.... @@@@@@@@@@@@",
" OX.... @@@@@@@@@@@@",
" OX.... @@@@@@@@@@@@"
};
