/* XPM */
static char *iI[] = {
/* columns rows colors chars-per-pixel */
"16 48 13 1",
"  c black",
". c gray12",
"X c #3E3E3E",
"o c gray40",
"O c gray44",
"+ c #8E8E8E",
"@ c gray56",
"# c gray68",
"$ c #B7B7B7",
"% c #C1C1C1",
"& c gray84",
"* c gray88",
"= c gray100",
/* pixels */
"================",
"****************",
"&&&&&&&&&&&&&&&&",
"$$$$$$$$$$$$$$$$",
"       %%%%%%%%%",
" OOOOO         %",
" OOOOO ******* %",
" OOOOO ******* %",
" OOOOO ******* %",
" OOOOO ******* %",
"       ******* %",
"% ************ %",
"% ************ %",
"% ************ %",
"% ************ =",
"% ************ %",
"%              %",
"$$$$$$$$$$$$$$$$",
"$$$$$$$$$$$$$$$$",
"$$$$$$$$$$$$$$$$",
"################",
"++++++++++++++++",
"oooooooooooooooo",
"                ",
"================",
"****************",
"&&&&&&&&&&&&&&&&",
"$$$$$$$$$$$$$$$$",
"=======XXXXXXXXX",
"=@@@@@=========X",
"=@@@@@=.......=X",
"=@@@@@=.......=X",
"=@@@@@=.......=X",
"=@@@@@=.......=X",
"=======.......=X",
"X=............=X",
"X=............=X",
"X=............=X",
"X=............=X",
"X=............=X",
"X==============X",
"$$$$$$$$$$$$$$$$",
"$$$$$$$$$$$$$$$$",
"$$$$$$$$$$$$$$$$",
"################",
"++++++++++++++++",
"oooooooooooooooo",
"                "
};
